!!!Genre:	Tants
!!!Mode:	Freygish
!!!Listening/dance:	dance
!!!One_Mode:	yes
**kern
*thru
*part1
*staff1
*clefG2
*k[b-e-a-]
*G:frey
*M2/4
*>A
=1-
(<8qg/
8dL)
16gL
16gJJ
8gL
8gJ
=2
2g
=3
8gL
16bnL
16bJJ
8bL
8bJ
=4
2bn
=5
8bnL
8a-
8g
8a-J
=6
8bnL
8cc
8dd
8ccJ
=7
8bnL
(>8qdd/
8ccJ)
8a-L
8bJ
*>A1
=8
8gL
8a-
8g
8fJ
*>A2
=9:|!
2g
=10
*>B
8g
4dd
8dd
=11
4dd
8bnL
8gJ
=12
8.ccL
16ddJk
12ee-L
12dd
12ccJ
=13
8ccL
(8qee-/
8ddJ)
8bnL
8gJ
=14
8g
4dd
8dd
=15
2gg
=16
8.ccL
16ddJk
12ee-L
12dd
12ccJ
=17
4.dd
8cc
=18!|:
*>C
4bn
4cc
=19
4.dd
8cc
=20
4ee-
4ee-
=21
4.dd
8cc
=22
4bn
4cc
=23
4.dd
8cc
=24
8bnL
8cc
8a-
8bJ
*>C1
=25
8gL
8a-
8g
8fJ
*>C2
=26:|!
2g
==
*-
